X:525
T: Boyne Water
T: Battle of the Boyne
T: Briseadh na B\'oinne
S: B.Breathnach: "Ceol Rince na hEireann" II/124
Z: B.Black
L: 1/8
M: 4/4
R: hornpipe
K: Ador
(3Bcd|e2 ef efge|dBAG G2 AB|cAAB (3cBA GB|ABAG E2 D2|
e2 ee e2 ge|edBA G2 AB|cA (3AAA ed (3Bcd|1 A2-A2 A2 :|2\
A2-A2 A2 z||
a2 aa a2 g2|abag e2 de|g2 gg gage|dBAG G3 z|
B2 e2 efge|edBA G2 AB|c2 A2 ed (3Bcd|A2-A2 A2 z2 :|


